X: 21055
T: June Clover
R: waltz
M: 3/4
K: Dmajor
F2G2|A3 ^GA^G|A2f2=g2|a3 ^ga^g|a6|A3 Bcd|e4d2|=g6-|=g2c2d2|
e3 ^de^d|e2=d2B2|c3 =c^c=c|^c2c2d2|e4(3ded|c4(3BcB|A6-|A2F2=G2|
A3 ^GAG|A2f2=g2|a3 ^gag|a6|A3 Bcd|e4d2|b6-|b6|
b6-|b2a2^g2|a6|f6|e3 fe2|B4c2|d6-|d6|
f4z2|f4z2|f4z2|f2e2d2|B6|^A6|=A6-|A6|
=g6-|=g2f2^e2|f6|d6|e6-|e2f2d2|e6-|e2d2e2|
f4z2|f4z2|f4z2|f2e2d2|B6|^A6|=A6-|A6|
=g6-|=g2f2^e2|f6|d6|e3 fe2|B4c2|d6-|d2||

